X: 1
T: Celina
M: 4/4
L: 1/8
R: reel
K: Gmaj
|: Bc | dBcd BcAc | BBGB BAGB | AF~F2 DFAd | BBGB BAGB |
dBcd BcAc | BBGB BAGB | AF~F2 DFAd | BcAF G2 :|
|: Bd | g2bg gfeg | f2df fedf | eA~A2 AFAd | BBGB Bdef |
 g2bg gfeg | f2df fedf | eA~A2 AFAd | BcAF G2 :|
